svg/wx-wind-beufort-9.svg

<?xml version="1.0" encoding="utf-8"?>
<!-- Generator: Adobe Illustrator 15.1.0, SVG Export Plug-In . SVG Version: 6.00 Build 0)  -->
<!DOCTYPE svg PUBLIC "-//W3C//DTD SVG 1.1//EN" "http://www.w3.org/Graphics/SVG/1.1/DTD/svg11.dtd">
<svg version="1.1" id="Layer_1" xmlns:serif="http://www.serif.com/"
	 xmlns="http://www.w3.org/2000/svg" xmlns:xlink="http://www.w3.org/1999/xlink" x="0px" y="0px" width="283.46px"
	 height="283.46px" viewBox="0 0 283.46 283.46" enable-background="new 0 0 283.46 283.46" xml:space="preserve">
<g>
	<path fill="none" d="M150.533,148.939c-2.658-2.207-6.396-3.311-11.219-3.311c-4.74,0-8.46,1.125-11.157,3.371
		c-2.697,2.248-4.045,5.334-4.045,9.258c0,4.004,1.328,7.111,3.984,9.318c2.655,2.206,6.395,3.309,11.218,3.309
		c4.74,0,8.458-1.122,11.155-3.37c2.696-2.248,4.047-5.292,4.047-9.134C154.516,154.294,153.189,151.145,150.533,148.939z"/>
	<path fill="#010001" d="M195.984,116.168H88.237c-1.151,0-2.085,0.934-2.085,2.085s0.934,2.085,2.085,2.085h107.747
		c13.038,0,18.977,8.286,18.977,15.984s-5.938,15.983-18.977,15.983c-1.151,0-2.085,0.934-2.085,2.085s0.934,2.085,2.085,2.085
		c15.196,0,23.146-10.139,23.146-20.153C219.13,126.307,211.18,116.168,195.984,116.168z"/>
	<path fill="#010001" d="M174.234,102.524c15.196,0,23.146-10.139,23.146-20.154c0-10.016-7.95-20.155-23.146-20.155
		c-1.151,0-2.085,0.934-2.085,2.085s0.934,2.085,2.085,2.085c13.038,0,18.977,8.286,18.977,15.985
		c0,7.697-5.937,15.981-18.97,15.984c-0.002,0-0.005,0-0.007,0H66.484c-1.151,0-2.085,0.934-2.085,2.085s0.934,2.085,2.085,2.085
		h107.74C174.227,102.523,174.231,102.524,174.234,102.524z"/>
	<path d="M161.996,138.887c-5.478-4.576-12.873-6.866-22.19-6.866c-9.727,0-17.389,2.328-22.99,6.988
		c-5.599,4.659-8.397,10.952-8.397,18.88v0.368c0,4.33,0.857,8.336,2.573,12.015c2.126,4.331,5.375,7.663,9.747,9.991
		c4.374,2.331,9.544,3.494,15.51,3.494c2.78,0,5.436-0.368,7.97-1.103l-20.354,26.604h16.184l20.474-27.096
		c3.434-4.496,5.905-8.684,7.418-12.564c1.512-3.885,2.268-7.909,2.268-12.078C170.208,149.675,167.471,143.464,161.996,138.887z
		 M150.469,167.514c-2.697,2.248-6.415,3.37-11.155,3.37c-4.823,0-8.563-1.103-11.218-3.309c-2.656-2.207-3.984-5.314-3.984-9.318
		c0-3.924,1.348-7.01,4.045-9.258c2.697-2.246,6.417-3.371,11.157-3.371c4.822,0,8.561,1.104,11.219,3.311
		c2.656,2.206,3.983,5.355,3.983,9.441C154.516,162.222,153.166,165.266,150.469,167.514z"/>
</g>
</svg>

<?xml version="1.0" encoding="UTF-8" standalone="no"?>
<!DOCTYPE svg PUBLIC "-//W3C//DTD SVG 1.1//EN" "http://www.w3.org/Graphics/SVG/1.1/DTD/svg11.dtd">
<svg width="100%" height="100%" viewBox="0 0 284 284" version="1.1" xmlns="http://www.w3.org/2000/svg" xmlns:xlink="http://www.w3.org/1999/xlink" xml:space="preserve" xmlns:serif="http://www.serif.com/" style="fill-rule:evenodd;clip-rule:evenodd;stroke-linejoin:round;stroke-miterlimit:2;">
    <g>
        <path d="M150.533,148.939C147.875,146.732 144.137,145.628 139.314,145.628C134.574,145.628 130.854,146.753 128.157,148.999C125.46,151.247 124.112,154.333 124.112,158.257C124.112,162.261 125.44,165.368 128.096,167.575C130.751,169.781 134.491,170.884 139.314,170.884C144.054,170.884 147.772,169.762 150.469,167.514C153.165,165.266 154.516,162.222 154.516,158.38C154.516,154.294 153.189,151.145 150.533,148.939Z" style="fill:none;fill-rule:nonzero;"/>
        <g transform="matrix(1,0,0,1,-5.5594,-5.2391)">
            <path d="M195.984,112.668L88.237,112.668C85.154,112.668 82.652,115.17 82.652,118.253C82.652,121.336 85.154,123.838 88.237,123.838L195.984,123.838C206.433,123.838 211.461,130.153 211.461,136.322C211.461,142.491 206.434,148.805 195.984,148.805C192.901,148.805 190.399,151.307 190.399,154.39C190.399,157.473 192.901,159.975 195.984,159.975C213.626,159.975 222.63,147.948 222.63,136.322C222.63,124.695 213.626,112.668 195.984,112.668Z" style="fill:rgb(1,0,1);fill-rule:nonzero;"/>
        </g>
        <path d="M66.484,106.024L174.234,106.024C191.876,106.024 200.88,93.997 200.88,82.37C200.88,70.742 191.876,58.715 174.234,58.715C171.151,58.715 168.649,61.217 168.649,64.3C168.649,67.383 171.151,69.885 174.234,69.885C184.683,69.885 189.711,76.2 189.711,82.37C189.711,88.538 184.685,94.852 174.24,94.854L66.484,94.854C63.401,94.854 60.899,97.356 60.899,100.439C60.899,103.522 63.401,106.024 66.484,106.024Z" style="fill:rgb(1,0,1);fill-rule:nonzero;"/>
        <path d="M161.996,138.887C156.518,134.311 149.123,132.021 139.806,132.021C130.079,132.021 122.417,134.349 116.816,139.009C111.217,143.668 108.419,149.961 108.419,157.889L108.419,158.257C108.419,162.587 109.276,166.593 110.992,170.272C113.118,174.603 116.367,177.935 120.739,180.263C125.113,182.594 130.283,183.757 136.249,183.757C139.029,183.757 141.685,183.389 144.219,182.654L123.865,209.258L140.049,209.258L160.523,182.162C163.957,177.666 166.428,173.478 167.941,169.598C169.453,165.713 170.209,161.689 170.209,157.52C170.208,149.675 167.471,143.464 161.996,138.887ZM150.469,167.514C147.772,169.762 144.054,170.884 139.314,170.884C134.491,170.884 130.751,169.781 128.096,167.575C125.44,165.368 124.112,162.261 124.112,158.257C124.112,154.333 125.46,151.247 128.157,148.999C130.854,146.753 134.574,145.628 139.314,145.628C144.136,145.628 147.875,146.732 150.533,148.939C153.189,151.145 154.516,154.294 154.516,158.38C154.516,162.222 153.166,165.266 150.469,167.514Z" style="fill-rule:nonzero;"/>
    </g>
</svg>
